X:108
T:Jolly Clam-Diggers
M:C
L:1/8
K:D Major
gfe|d2FB AFEF|Dddc BABc|dFF2 AFF2|EDCE D:|!
ABc|defd egfd|A2cA eAcA|defd e2fg|abag fdec|!
defd egfd|A2cA eAcA|defg abag|fdec d:|!
